rospo-light/small/devices/colorimeter-colorhug-symbolic.svg

<svg xmlns="http://www.w3.org/2000/svg" width="16" height="16" version="1.1">
 <path style="fill:#5c616c" d="M 6,7.0005 V 2.2015 C 6,1.7515 6.17,1.4915 6.44,1.2915 6.7,1.0915 7.1,0.99155 7.5,1.0115 7.9,1.0315 8.28,1.1615 8.56,1.4215 8.84,1.6715 9.03,2.0015 9.03,2.5415 9.03,4.7115 10.5,6.0515 12.03,6.0115 12.89,5.9915 13.72,5.5315 14.28,4.7015 L 13.72,3.7015 C 13.34,4.6115 12.65,4.9915 12,5.0115 11.04,5.0415 10.03,4.2815 10.03,2.5415 10.03,1.7515 9.69,1.1015 9.22,0.67155 8.74,0.24155 8.14,0.04155 7.53,0.01155 7.38,0.00155 7.21,-0.00845 7.06,0.01155 6.61,0.06155 6.18,0.23155 5.81,0.51155 5.32,0.88155 5,1.4615 5,2.2015 V 7.0005 M 14,2.0115 V 2.1315 L 14.78,3.5115 C 14.79,3.4715 14.8,3.4315 14.81,3.3815 Z M 14,2.3515 C 13.99,2.4615 13.98,2.5715 13.97,2.6715 L 14.69,3.8815 14.75,3.7015 Z M 13.94,2.8515 C 13.92,2.9415 13.89,3.0215 13.88,3.1015 L 14.53,4.2315 C 14.56,4.1715 14.6,4.1115 14.63,4.0415 Z M 13.84,3.2915 C 13.82,3.3815 13.78,3.4615 13.75,3.5415 L 14.34,4.5715 C 14.38,4.5115 14.43,4.4515 14.47,4.3815 Z"/>
 <rect style="fill:#5c616c" width="7" height="8" x="2" y="6" rx=".8" ry=".8"/>
</svg>

<?xml version="1.0" encoding="UTF-8" standalone="no"?>
<svg
   xmlns:dc="http://purl.org/dc/elements/1.1/"
   xmlns:cc="http://creativecommons.org/ns#"
   xmlns:rdf="http://www.w3.org/1999/02/22-rdf-syntax-ns#"
   xmlns:svg="http://www.w3.org/2000/svg"
   xmlns="http://www.w3.org/2000/svg"
   xmlns:sodipodi="http://sodipodi.sourceforge.net/DTD/sodipodi-0.dtd"
   xmlns:inkscape="http://www.inkscape.org/namespaces/inkscape"
   width="22"
   height="22"
   version="1.1"
   id="svg6"
   sodipodi:docname="colorimeter-colorhug-symbolic.svg"
   inkscape:version="0.92.1 r">
  <metadata
     id="metadata12">
    <rdf:RDF>
      <cc:Work
         rdf:about="">
        <dc:format>image/svg+xml</dc:format>
        <dc:type
           rdf:resource="http://purl.org/dc/dcmitype/StillImage" />
      </cc:Work>
    </rdf:RDF>
  </metadata>
  <defs
     id="defs10" />
  <sodipodi:namedview
     pagecolor="#ffffff"
     bordercolor="#666666"
     borderopacity="1"
     objecttolerance="10"
     gridtolerance="10"
     guidetolerance="10"
     inkscape:pageopacity="0"
     inkscape:pageshadow="2"
     inkscape:window-width="749"
     inkscape:window-height="480"
     id="namedview8"
     showgrid="false"
     inkscape:zoom="10.727273"
     inkscape:cx="10.739636"
     inkscape:cy="11"
     inkscape:window-x="0"
     inkscape:window-y="0"
     inkscape:window-maximized="0"
     inkscape:current-layer="svg6" />
  <g
     id="g824"
     transform="translate(2.595,3.9999985)">
    <path
       id="path2"
       d="m 6,7.0005 v -4.799 c 0,-0.45 0.17,-0.71 0.44,-0.91 0.26,-0.2 0.66,-0.29995 1.06,-0.28 0.4,0.02 0.78,0.15 1.06,0.41 0.28,0.25 0.47,0.58 0.47,1.12 0,2.17 1.47,3.51 3,3.47 0.86,-0.02 1.69,-0.48 2.25,-1.31 l -0.56,-1 c -0.38,0.91 -1.07,1.29 -1.72,1.31 -0.96,0.03 -1.97,-0.73 -1.97,-2.47 0,-0.79 -0.34,-1.44 -0.81,-1.86995 -0.48,-0.43 -1.08,-0.63 -1.69,-0.66 -0.15,-0.01 -0.32,-0.02 -0.47,0 -0.45,0.05 -0.88,0.22 -1.25,0.5 C 5.32,0.88155 5,1.4615 5,2.2015 v 4.799 m 9,-4.989 v 0.12 l 0.78,1.38 c 0.01,-0.04 0.02,-0.08 0.03,-0.13 z m 0,0.34 c -0.01,0.11 -0.02,0.22 -0.03,0.32 l 0.72,1.21 0.06,-0.18 z m -0.06,0.5 c -0.02,0.09 -0.05,0.17 -0.06,0.25 l 0.65,1.13 c 0.03,-0.06 0.07,-0.12 0.1,-0.19 z m -0.1,0.44 c -0.02,0.09 -0.06,0.17 -0.09,0.25 l 0.59,1.03 c 0.04,-0.06 0.09,-0.12 0.13,-0.19 z"
       style="fill:#5c616c"
       inkscape:connector-curvature="0" />
    <rect
       id="rect4"
       ry="0.80000001"
       rx="0.80000001"
       y="6"
       x="2"
       height="8"
       width="7"
       style="fill:#5c616c" />
  </g>
</svg>
